site/static/helsinki-sv.svg

<?xml version="1.0" encoding="UTF-8"?>
<svg width="104px" height="36px" viewBox="0 0 104 36" version="1.1" 
    xmlns="http://www.w3.org/2000/svg" 
    xmlns:xlink="http://www.w3.org/1999/xlink">
    <g stroke="none" stroke-width="1">
        <path d="M103.104504,-9.9475983e-14 L103.104504,22.9348491 C103.104504,28.1136861 98.8386533,32.3323131 93.5811106,32.3323131 L93.5811106,32.3323131 L58.7144731,32.3637954 C56.4634893,32.3637954 54.3384346,33.2452995 52.7328378,34.8351552 L52.7328378,34.8351552 L51.5522519,36 L50.3716659,34.8351552 C48.7818102,33.2452995 46.6567556,32.3637954 44.3900306,32.3637954 L44.3900306,32.3637954 L9.47616965,32.3637954 C4.25010931,32.3637954 0,28.1451683 0,22.9663314 L0,22.9663314 L0,-9.9475983e-14 L103.104504,-9.9475983e-14 Z M100.869261,2.23524268 L2.25098382,2.23524268 L2.25098382,22.9663314 C2.25098382,26.917359 5.49365982,30.1285527 9.47616965,30.1285527 L9.47616965,30.1285527 L44.3900306,30.1285527 C47.0660254,30.1285527 49.5846087,31.0887626 51.5522519,32.867512 C53.5198951,31.0887626 56.0384784,30.1285527 58.7144731,30.1285527 L58.7144731,30.1285527 L93.5811106,30.0970704 C97.5951028,30.0970704 100.869261,26.8858767 100.869261,22.9348491 L100.869261,22.9348491 L100.869261,2.23524268 Z M62.0201137,12.0891998 L64.0192392,13.2383035 C63.9877569,14.2457368 63.5312637,14.7179711 62.6655007,14.7179711 C62.4608658,14.7179711 62.1932663,14.6707477 62.051596,14.6235243 L62.051596,14.6235243 L62.051596,14.6864889 C62.4766069,15.0170529 62.9960647,15.567993 62.9960647,16.4494972 C62.9960647,17.9606471 61.5321382,18.920857 59.7219064,18.920857 C58.8876257,18.920857 58.163533,19.1884565 58.163533,19.5977263 C58.163533,19.9125492 58.4311325,20.0542195 59.0765195,20.0542195 C59.7219064,20.0542195 60.4459991,19.9282903 61.2802798,19.9282903 C62.9331001,19.9282903 64.0349803,20.5894185 64.0349803,22.0848273 C64.0349803,23.8793179 62.0201137,24.5876694 59.7533887,24.5876694 C57.6440752,24.5876694 55.7236554,23.9895059 55.7236554,22.6357674 C55.7236554,21.8172278 56.5736773,21.3292523 57.3449934,21.187582 L57.3449934,21.187582 L57.3449934,21.1403585 C56.7625711,20.9672059 56.2431132,20.5894185 56.2431132,19.9282903 C56.2431132,19.0625273 57.1246174,18.590293 58.0218627,18.4013992 L58.0218627,18.4013992 L58.0218627,18.3541758 C57.187582,18.0236117 56.4792304,17.3467425 56.4792304,16.1661565 C56.4792304,14.6550066 57.8014867,13.6160909 59.6117184,13.6160909 C60.3043288,13.6160909 60.6978575,13.7577613 61.2173153,13.7577613 C61.8627022,13.7577613 62.0988194,13.3957149 62.0988194,12.8132925 C62.0988194,12.545693 62.051596,12.2780936 62.0201137,12.0891998 L62.0201137,12.0891998 Z M60.2885877,21.6283341 C59.3598601,21.6283341 57.5653695,21.7070398 57.5653695,22.4153913 C57.5653695,22.9505903 58.4626148,23.2024486 59.7219064,23.2181898 C61.1386095,23.2181898 61.9571491,22.9505903 61.9571491,22.3052033 C61.9571491,21.8014867 61.2015741,21.6283341 60.2885877,21.6283341 Z M89.2837779,13.6160909 C90.810669,13.6160909 92.211631,14.3401836 92.8097945,15.3633581 L92.8097945,15.3633581 L90.9680805,16.4022737 C90.7791867,15.7254045 90.1967643,15.1902055 89.3624836,15.1902055 C88.8115435,15.1902055 88.3550503,15.4263227 88.3550503,15.8670748 C88.3550503,16.4494972 89.3624836,16.5124617 90.5115872,16.8745081 C91.7079143,17.2522956 92.8097945,17.8032357 92.8097945,19.2041976 C92.8097945,20.7468299 91.3773502,21.6598164 89.7087888,21.6598164 C87.9142982,21.6598164 86.4975951,20.8885002 85.8679493,19.676432 L85.8679493,19.676432 L87.7411456,18.6217753 C87.9930039,19.456056 88.6541321,20.0857018 89.6773065,20.0857018 C90.27547,20.0857018 90.700481,19.8181023 90.700481,19.3458679 C90.700481,18.7319633 89.8504591,18.590293 88.8587669,18.3226935 C87.6939222,18.0078706 86.2457368,17.4411893 86.2457368,15.9772628 C86.2457368,14.5290774 87.6309576,13.6160909 89.2837779,13.6160909 Z M74.6287713,13.6160909 C76.7066025,13.6160909 78.3279405,15.1429821 78.3279405,17.6300831 C78.3279405,20.1171841 76.7223437,21.6440752 74.6287713,21.6440752 C72.5194578,21.6440752 70.913861,20.1171841 70.913861,17.6300831 C70.913861,15.1429821 72.5194578,13.6160909 74.6287713,13.6160909 Z M24.9497158,13.6160909 C27.0118059,13.6160909 28.3812855,15.0800175 28.3812855,17.1578487 C28.3970267,17.7717534 28.2868387,18.1967643 28.2868387,18.1967643 L23.3126366,18.1967643 C23.4070835,19.4403148 24.0996939,20.0542195 24.9969392,20.0542195 C25.7997376,20.0542195 26.3506777,19.5190206 26.4766069,18.7949279 L28.2868387,19.8181023 C27.7516397,20.7940533 26.6025361,21.6440752 24.9969392,21.6440752 C22.8561434,21.6440752 21.2820289,20.1486664 21.2820289,17.6300831 C21.2820289,15.1429821 22.8876257,13.6160909 24.9497158,13.6160909 Z M38.0148666,13.6003498 C39.5417578,13.6003498 40.9427197,14.3244425 41.5408833,15.347617 L39.6991692,16.3865326 C39.5102755,15.7096633 38.9435942,15.1744644 38.0935724,15.1744644 C37.5426323,15.1744644 37.086139,15.4105815 37.086139,15.8513336 C37.086139,16.433756 38.0935724,16.4967206 39.2269348,16.8587669 C40.4232619,17.2365544 41.5251421,17.7874945 41.5251421,19.1884565 C41.5251421,20.7310888 40.0926979,21.6283341 38.4398776,21.6283341 C36.645387,21.6283341 35.2286839,20.8727591 34.599038,19.6449497 L36.4722344,18.590293 C36.7083516,19.4245737 37.3852208,20.0542195 38.4083953,20.0542195 C38.9908177,20.0699606 39.4158286,19.8181023 39.4158286,19.3301268 C39.4158286,18.7162221 38.5658067,18.590293 37.5741146,18.3069523 C36.4092698,18.0078706 34.9768255,17.4254482 34.9768255,15.9615216 C34.9768255,14.5133362 36.3620463,13.6003498 38.0148666,13.6003498 Z M32.3008308,10.5308264 L32.3008308,19.031045 C32.3008308,19.3930914 32.3480542,19.6449497 32.4582422,19.78662 C32.5526891,19.9440315 32.6786183,20.0069961 32.9619589,20.0069961 C33.1351115,20.0069961 33.292523,20.0069961 33.4184521,19.9755138 C33.5601224,19.9597726 33.7017927,19.9125492 33.8749453,19.8495846 L33.8749453,19.8495846 L33.6860516,21.29777 C33.512899,21.3922169 33.3082641,21.4709226 33.0406646,21.5338872 C32.7888063,21.5811106 32.5212068,21.6125929 32.2693485,21.6125929 C31.5295146,21.6125929 30.9943157,21.4394403 30.6480105,21.077394 C30.3174464,20.7153476 30.1442938,20.1329252 30.1442938,19.3458679 L30.1442938,19.3458679 L30.1442938,10.5308264 L32.3008308,10.5308264 Z M52.1189331,13.6160909 C53.5986008,13.6160909 54.5273284,14.6392654 54.5273284,16.543944 L54.5273284,16.543944 L54.5273284,21.4551815 L52.3707914,21.4551815 L52.3707914,16.968955 C52.3707914,15.9615216 52.0087451,15.4263227 51.2059467,15.4263227 C50.4031482,15.4263227 49.8836904,16.0402274 49.8836904,16.9217315 L49.8836904,16.9217315 L49.8836904,21.4709226 L47.7428946,21.4709226 L47.7428946,13.8049847 L49.8836904,13.8049847 L49.7735024,15.0642763 L49.8207258,15.0642763 C50.1985133,14.3559248 50.8596415,13.6160909 52.1189331,13.6160909 Z M68.8517709,10.2789681 C70.2212505,10.2789681 71.1184958,11.0030608 71.5907302,11.67993 L71.5907302,11.67993 L69.733275,12.8132925 C69.7017927,12.3567993 69.4814167,11.8845649 68.9619589,11.8845649 C68.4267599,11.8845649 68.1749016,12.2938347 68.1749016,12.970704 L68.1749016,12.970704 L68.1749016,13.8049847 L69.8592042,13.8049847 L69.8592042,15.4420638 L68.1749016,15.4420638 L68.1749016,21.4709226 L66.0341058,21.4709226 L66.0341058,15.4420638 L64.8535199,15.4420638 L64.8535199,13.8049847 L66.0341058,13.8049847 L66.0341058,12.9864451 C66.0341058,11.1919545 67.2146917,10.2789681 68.8517709,10.2789681 Z M83.6641889,13.6633144 C84.7503279,13.6633144 85.3484915,14.5763008 85.3484915,15.6939222 C85.3484915,16.1976388 85.2697857,16.5911675 85.2697857,16.5911675 L85.2697857,16.5911675 L83.3336248,17.7087888 C83.3651071,17.4884128 83.459554,16.968955 83.459554,16.4494972 C83.459554,15.9457805 83.2706603,15.4735461 82.7354613,15.4735461 C82.058592,15.4735461 81.7909926,16.103192 81.7909926,17.0948841 L81.7909926,17.0948841 L81.7909926,21.4709226 L79.6344556,21.4709226 L79.6344556,13.8207258 L81.7909926,13.8207258 L81.6808045,15.0800175 L81.728028,15.0800175 C82.1058155,14.3401836 82.6882379,13.6633144 83.6641889,13.6633144 Z M13.1438566,10.9400962 L13.1438566,15.1114998 L17.3467425,15.1114998 L17.3467425,10.9400962 L19.5819851,10.9400962 L19.5819851,21.4551815 L17.3467425,21.4551815 L17.3467425,17.0948841 L13.1438566,17.0948841 L13.1438566,21.4551815 L10.9086139,21.4551815 L10.9086139,10.9400962 L13.1438566,10.9400962 Z M45.4761697,13.7892436 L45.4761697,21.4551815 L43.3196327,21.4551815 L43.3196327,13.7892436 L45.4761697,13.7892436 Z M74.6287713,15.2531701 C73.5583734,15.2531701 73.086139,16.2606034 73.086139,17.6300831 C73.086139,18.9995627 73.5583734,20.0069961 74.6287713,20.0069961 C75.6834281,20.0069961 76.1556624,18.9995627 76.1556624,17.6300831 C76.1556624,16.2606034 75.6834281,15.2531701 74.6287713,15.2531701 Z M59.7376476,15.0642763 C59.0135549,15.0642763 58.4311325,15.5365107 58.4311325,16.2606034 C58.4311325,17.0004373 59.0135549,17.4726716 59.7376476,17.4569305 C60.4617403,17.4569305 61.0441627,16.9846961 61.0441627,16.2606034 C61.0441627,15.5365107 60.4617403,15.0642763 59.7376476,15.0642763 Z M24.9654569,15.1587232 C24.1783997,15.1587232 23.5330127,15.7254045 23.3598601,16.7643201 L26.3979012,16.7643201 C26.3979012,15.8513336 25.7997376,15.1587232 24.9654569,15.1587232 Z M44.4057718,10.483603 C45.0983822,10.483603 45.6493223,10.9873196 45.6493223,11.67993 C45.6493223,12.3725404 45.0983822,12.8762571 44.4057718,12.8762571 C43.6974202,12.8762571 43.1622213,12.3725404 43.1622213,11.67993 C43.1622213,10.9873196 43.7131613,10.483603 44.4057718,10.483603 Z"></path>
    </g>
</svg>

<?xml version="1.0" encoding="UTF-8"?>
<svg version="1.1" viewBox="0 0 104 36" xmlns="http://www.w3.org/2000/svg">
<g>
<path d="m103.1-9.9476e-14v22.935c0 5.1788-4.2659 9.3975-9.5234 9.3975l-34.867 0.031482c-2.251 0-4.376 0.8815-5.9816 2.4714l-1.1806 1.1648-1.1806-1.1648c-1.5899-1.5899-3.7149-2.4714-5.9816-2.4714h-34.914c-5.2261 0-9.4762-4.2186-9.4762-9.3975v-22.966h103.1zm-2.2352 2.2352h-98.618v20.731c0 3.951 3.2427 7.1622 7.2252 7.1622h34.914c2.676 0 5.1946 0.96021 7.1622 2.739 1.9676-1.7787 4.4862-2.739 7.1622-2.739l34.867-0.031482c4.014 0 7.2882-3.2112 7.2882-7.1622v-20.7zm-38.849 9.854 1.9991 1.1491c-0.031482 1.0074-0.48798 1.4797-1.3537 1.4797-0.20463 0-0.47223-0.047223-0.6139-0.094447v0.062965c0.42501 0.33056 0.94447 0.8815 0.94447 1.763 0 1.5111-1.4639 2.4714-3.2742 2.4714-0.83428 0-1.5584 0.2676-1.5584 0.67687 0 0.31482 0.2676 0.45649 0.91299 0.45649 0.64539 0 1.3695-0.12593 2.2038-0.12593 1.6528 0 2.7547 0.66113 2.7547 2.1565 0 1.7945-2.0149 2.5028-4.2816 2.5028-2.1093 0-4.0297-0.59816-4.0297-1.9519 0-0.81854 0.85002-1.3065 1.6213-1.4482v-0.047224c-0.58242-0.17315-1.1019-0.55094-1.1019-1.2121 0-0.86576 0.8815-1.338 1.7787-1.5269v-0.047223c-0.83428-0.33056-1.5426-1.0074-1.5426-2.188 0-1.5111 1.3223-2.5501 3.1325-2.5501 0.69261 0 1.0861 0.14167 1.6056 0.14167 0.64539 0 0.8815-0.36205 0.8815-0.94447 0-0.2676-0.047223-0.5352-0.078706-0.72409zm-1.7315 9.5391c-0.92873 0-2.7232 0.078706-2.7232 0.78706 0 0.5352 0.89725 0.78706 2.1565 0.8028 1.4167 0 2.2352-0.2676 2.2352-0.91299 0-0.50372-0.75558-0.67687-1.6686-0.67687zm28.995-8.0122c1.5269 0 2.9279 0.72409 3.526 1.7473l-1.8417 1.0389c-0.18889-0.67687-0.77132-1.2121-1.6056-1.2121-0.55094 0-1.0074 0.23612-1.0074 0.67687 0 0.58242 1.0074 0.64539 2.1565 1.0074 1.1963 0.37779 2.2982 0.92873 2.2982 2.3297 0 1.5426-1.4324 2.4556-3.101 2.4556-1.7945 0-3.2112-0.77132-3.8408-1.9834l1.8732-1.0547c0.25186 0.83428 0.91299 1.4639 1.9362 1.4639 0.59816 0 1.0232-0.2676 1.0232-0.73983 0-0.6139-0.85002-0.75557-1.8417-1.0232-1.1648-0.31482-2.613-0.8815-2.613-2.3454 0-1.4482 1.3852-2.3612 3.038-2.3612zm-14.655 0c2.0778 0 3.6992 1.5269 3.6992 4.014s-1.6056 4.014-3.6992 4.014c-2.1093 0-3.7149-1.5269-3.7149-4.014s1.6056-4.014 3.7149-4.014zm-49.679 0c2.0621 0 3.4316 1.4639 3.4316 3.5418 0.015741 0.6139-0.094447 1.0389-0.094447 1.0389h-4.9742c0.094447 1.2436 0.78706 1.8575 1.6843 1.8575 0.8028 0 1.3537-0.5352 1.4797-1.2593l1.8102 1.0232c-0.5352 0.97595-1.6843 1.826-3.2899 1.826-2.1408 0-3.7149-1.4954-3.7149-4.014 0-2.4871 1.6056-4.014 3.6677-4.014zm13.065-0.015741c1.5269 0 2.9279 0.72409 3.526 1.7473l-1.8417 1.0389c-0.18889-0.67687-0.75558-1.2121-1.6056-1.2121-0.55094 0-1.0074 0.23612-1.0074 0.67687 0 0.58242 1.0074 0.64539 2.1408 1.0074 1.1963 0.37779 2.2982 0.92873 2.2982 2.3297 0 1.5426-1.4324 2.4399-3.0853 2.4399-1.7945 0-3.2112-0.75558-3.8408-1.9834l1.8732-1.0547c0.23612 0.83428 0.91299 1.4639 1.9362 1.4639 0.58242 0.015741 1.0074-0.23612 1.0074-0.72409 0-0.6139-0.85002-0.73983-1.8417-1.0232-1.1648-0.29908-2.5973-0.8815-2.5973-2.3454 0-1.4482 1.3852-2.3612 3.038-2.3612zm-5.714-3.0695v8.5002c0 0.36205 0.047223 0.6139 0.15741 0.75558 0.094447 0.15741 0.22038 0.22038 0.50372 0.22038 0.17315 0 0.33056 0 0.45649-0.031482 0.14167-0.015741 0.28334-0.062965 0.45649-0.12593l-0.18889 1.4482c-0.17315 0.094447-0.37779 0.17315-0.64539 0.23612-0.25186 0.047223-0.51946 0.078706-0.77132 0.078706-0.73983 0-1.275-0.17315-1.6213-0.5352-0.33056-0.36205-0.50372-0.94447-0.50372-1.7315v-8.815h2.1565zm19.818 3.0853c1.4797 0 2.4084 1.0232 2.4084 2.9279v4.9112h-2.1565v-4.4862c0-1.0074-0.36205-1.5426-1.1648-1.5426-0.8028 0-1.3223 0.6139-1.3223 1.4954v4.5492h-2.1408v-7.6659h2.1408l-0.11019 1.2593h0.047223c0.37779-0.70835 1.0389-1.4482 2.2982-1.4482zm16.733-3.3371c1.3695 0 2.2667 0.72409 2.739 1.401l-1.8575 1.1334c-0.031482-0.45649-0.25186-0.92873-0.77132-0.92873-0.5352 0-0.78706 0.40927-0.78706 1.0861v0.83428h1.6843v1.6371h-1.6843v6.0289h-2.1408v-6.0289h-1.1806v-1.6371h1.1806v-0.81854c0-1.7945 1.1806-2.7075 2.8177-2.7075zm14.812 3.3843c1.0861 0 1.6843 0.91299 1.6843 2.0306 0 0.50372-0.078706 0.89725-0.078706 0.89725l-1.9362 1.1176c0.031482-0.22038 0.12593-0.73983 0.12593-1.2593 0-0.50372-0.18889-0.97595-0.72409-0.97595-0.67687 0-0.94447 0.62965-0.94447 1.6213v4.376h-2.1565v-7.6502h2.1565l-0.11019 1.2593h0.047224c0.37779-0.73983 0.96021-1.4167 1.9362-1.4167zm-70.52-2.7232v4.1714h4.2029v-4.1714h2.2352v10.515h-2.2352v-4.3603h-4.2029v4.3603h-2.2352v-10.515h2.2352zm32.332 2.8491v7.6659h-2.1565v-7.6659h2.1565zm29.153 1.4639c-1.0704 0-1.5426 1.0074-1.5426 2.3769 0 1.3695 0.47223 2.3769 1.5426 2.3769 1.0547 0 1.5269-1.0074 1.5269-2.3769 0-1.3695-0.47223-2.3769-1.5269-2.3769zm-14.891-0.18889c-0.72409 0-1.3065 0.47223-1.3065 1.1963 0 0.73983 0.58242 1.2121 1.3065 1.1963 0.72409 0 1.3065-0.47223 1.3065-1.1963s-0.58242-1.1963-1.3065-1.1963zm-34.772 0.094447c-0.78706 0-1.4324 0.56668-1.6056 1.6056h3.038c0-0.91299-0.59816-1.6056-1.4324-1.6056zm19.44-4.6751c0.69261 0 1.2436 0.50372 1.2436 1.1963s-0.55094 1.1963-1.2436 1.1963c-0.70835 0-1.2436-0.50372-1.2436-1.1963s0.55094-1.1963 1.2436-1.1963z"/>
</g>
</svg>
